X:0
T:Old Vines
M:6/4
L:1/4
C:© Paul Gitlitz 2007
K:G
"G"B2A G2F|G2D B,2D|"C"CDE "G"D2C|"G"B,CD"D"A,2A|!
"G"B2A G2F|G2D B,2D|"C"CDE "D"D2F|("G"G3G,3):|!
|"D"A,2B, C2A,|"G"B,2C D2B,|"D"A,2B, "C"C2A,|"G"B,2C "D"DFA|!
"G"B2A G2F|G2D B,2D|"C"CDE "D"D2F|"G"(G3"G"G,3)|!
"D"F2G A2F|"G"G2A B2G|"D"A2B c2A|"G"BBc "D"def|!
"G"g2d "D7"c2A|"G"B2G D2B,|"C"CDE "D"D2F|"G"G3-"G"G,3|]
